X:1
L:1/8
M:6/8
K:G
""G"" ded B2 d |""D7"" c2 B A2 F |""G"" GAG G2 B |""D7"" d3 A3 |""G"" ded B2 g |""C"" f2 e c2 e | 
""G"" ded""D7"" c2 A |""G"" G3 G3 |""G"" B3 BcB |""C"" e3 e3 |""D7"" A3 Ace |""G"" d3""D7"" d3 |""G"" ded B2 g | 
""C"" f2 e c2 e |""G"" ded""D7"" c2 A |""G"" G3 G3 ||
